dist/assets/img/logos/logo.svg

<svg width="323" height="60" fill="none" xmlns="http://www.w3.org/2000/svg"><path d="M45 30c0 9.691-7.637 17.5-17 17.5S11 39.691 11 30c0-9.691 7.637-17.5 17-17.5S45 20.309 45 30ZM28 .5v59m31-29H0m49.134 21.067L7.414 9.848m-.057 40.305 41.72-41.72" stroke="#BC4CC6" stroke-width="2"/><path d="m101.68 46.848-.056-.336c-.588-1.988-3.64-5.012-5.824-5.012H82.164v-.28a59.88 59.88 0 0 0 .168-4.48V22.292c-.532 0-1.96.308-2.688.504l-.112-.168.644-.728h6.58v.28a79.777 79.777 0 0 0-.14 4.48v14.28h7.728V26.66c0-1.484-.028-2.996-.14-4.48v-.28h4.592v.28a59.88 59.88 0 0 0-.168 4.48v10.08c0 1.4.056 2.828.14 4.228h2.184l-.616-1.232h.84l.924 6.972-.42.14Zm18.291-6.244.084.168-.504.728h-5.432v-.28c.056-1.484.112-2.996.112-4.48V29.6l-9.212 12.712h-.252c.056-1.596.084-3.5.084-6.132v-8.288c-.42 0-1.568.308-2.156.504l-.084-.168.504-.728h2.436c.812 0 2.38-.084 2.996-.196l.084.168c-.112 1.26-.168 3.052-.168 4.788v4.34l6.608-9.1h.364c.42 0 1.736-.084 2.464-.196l.084.168a75.627 75.627 0 0 0-.168 4.788v8.848c.42 0 1.568-.336 2.156-.504Zm11.956 6.496v-.28c.056-1.484.112-2.996.112-4.48v-3.724c-.756 2.016-2.24 3.164-4.396 3.164-3.304 0-5.684-3.08-5.684-7.28 0-4.34 2.296-7.28 5.684-7.28 2.212 0 3.668 1.12 4.396 3.08v-8.008c-.42 0-1.568.308-2.156.504l-.084-.168.504-.728h2.436c.812 0 2.38-.084 2.996-.196l.056.168a77.73 77.73 0 0 0-.14 4.788v3.724c.756-2.016 2.24-3.164 4.396-3.164 3.304 0 5.684 3.052 5.684 7.28 0 4.34-2.296 7.28-5.684 7.28-2.212 0-3.668-1.12-4.396-3.108v8.036c.448 0 1.68-.308 2.324-.504l.084.168-.56.728h-5.572Zm-2.94-6.188c1.876 0 3.22-2.604 3.22-6.412 0-3.836-1.344-6.44-3.22-6.44-1.904 0-3.22 2.604-3.22 6.44 0 3.836 1.316 6.412 3.22 6.412Zm9.716 0c1.904 0 3.22-2.576 3.22-6.412s-1.316-6.44-3.22-6.44c-1.876 0-3.22 2.604-3.22 6.44 0 3.808 1.344 6.412 3.22 6.412Zm11.018 6.188v-.28c.084-1.484.14-2.996.14-4.48V27.892c-.42 0-1.568.308-2.156.504l-.084-.168.504-.728h2.408c.812 0 2.38-.084 3.024-.196l.028.168a43.85 43.85 0 0 0-.112 2.94c.812-2.044 2.436-3.192 4.788-3.192 3.584 0 6.188 3.052 6.188 7.28 0 4.34-2.492 7.28-6.188 7.28-2.408 0-4.004-1.148-4.816-3.192v8.12c.532 0 1.96-.308 2.688-.504l.112.168-.644.728h-5.88Zm7.252-6.188c2.156 0 3.668-2.576 3.668-6.412s-1.512-6.44-3.668-6.44c-2.408 0-3.696 3.304-3.696 6.44 0 3.808 1.54 6.412 3.696 6.412Zm17.835.868c-4.592 0-7.868-3.024-7.868-7.28s3.276-7.28 7.868-7.28c4.592 0 7.868 3.024 7.868 7.28s-3.276 7.28-7.868 7.28Zm0-.476c2.352 0 4.032-2.772 4.032-6.804s-1.68-6.832-4.032-6.832c-2.38 0-4.032 2.8-4.032 6.832s1.652 6.804 4.032 6.804Zm11.854.196v-.28c.084-1.484.14-2.996.14-4.48v-8.848c-.42 0-1.568.308-2.156.504l-.084-.168.504-.728h6.44c4.228 0 6.804 1.344 6.804 3.556 0 1.764-1.344 2.968-3.584 3.36 2.8.252 4.48 1.512 4.48 3.388 0 2.296-2.716 3.696-7.196 3.696h-5.348Zm3.724-7.28h1.092c2.296 0 3.78-1.232 3.78-3.164 0-1.848-1.484-3.024-3.78-3.024h-1.092v6.188Zm0 6.832h1.232c2.548 0 4.228-1.26 4.228-3.108 0-1.932-1.68-3.22-4.256-3.22h-1.204v6.328Zm27.612-.448.084.168-.504.728h-5.432v-.28c.056-1.484.112-2.996.112-4.48V29.6l-9.212 12.712h-.252c.056-1.596.084-3.5.084-6.132v-8.288c-.42 0-1.568.308-2.156.504l-.084-.168.504-.728h2.436c.812 0 2.38-.084 2.996-.196l.084.168c-.112 1.26-.168 3.052-.168 4.788v4.34l6.608-9.1h.364c.42 0 1.736-.084 2.464-.196l.084.168a75.627 75.627 0 0 0-.168 4.788v8.848c.42 0 1.568-.336 2.156-.504Zm15.149-21.056v.308c0 3.276-2.072 5.516-5.124 5.516-3.052 0-5.124-2.24-5.124-5.516v-.308h.448v.168c0 1.764 1.876 2.94 4.676 2.94 2.828 0 4.704-1.176 4.704-2.94v-.168h.42Zm3.5 21.056.084.168-.504.728h-5.432v-.28c.056-1.484.112-2.996.112-4.48V29.6l-9.212 12.712h-.252c.056-1.596.084-3.5.084-6.132v-8.288c-.42 0-1.568.308-2.156.504l-.084-.168.504-.728h2.436c.812 0 2.38-.084 2.996-.196l.084.168c-.112 1.26-.168 3.052-.168 4.788v4.34l6.608-9.1h.364c.42 0 1.736-.084 2.464-.196l.084.168a75.627 75.627 0 0 0-.168 4.788v8.848c.42 0 1.568-.336 2.156-.504Zm7.448.896v-.308c1.26-1.736 3.752-6.804 4.76-9.38l2.66-6.636c-1.008-1.512-2.128-2.744-3.052-2.968l.056-.308h6.496a75.669 75.669 0 0 0 1.82 4.732l4.396 10.472c.588 1.4 1.036 2.352 1.904 4.116v.28h-6.776l-.644-.728.112-.168c.728.168 2.156.504 2.688.504l-2.492-6.048h-7.868c-.812 2.212-1.484 4.76-1.652 6.048.532 0 1.96-.336 2.688-.504l.112.168-.644.728h-4.564Zm4.256-6.972h7.448l-2.352-5.684a24.544 24.544 0 0 0-1.624-3.192l-3.472 8.876ZM265.822 47.1v-.28c.084-1.484.14-2.996.14-4.48V27.892c-.42 0-1.568.308-2.156.504l-.084-.168.504-.728h2.408c.812 0 2.38-.084 3.024-.196l.028.168a43.85 43.85 0 0 0-.112 2.94c.812-2.044 2.436-3.192 4.788-3.192 3.584 0 6.188 3.052 6.188 7.28 0 4.34-2.492 7.28-6.188 7.28-2.408 0-4.004-1.148-4.816-3.192v8.12c.532 0 1.96-.308 2.688-.504l.112.168-.644.728h-5.88Zm7.252-6.188c2.156 0 3.668-2.576 3.668-6.412s-1.512-6.44-3.668-6.44c-2.408 0-3.696 3.304-3.696 6.44 0 3.808 1.54 6.412 3.696 6.412Zm8.608.588v-.196c1.96-1.372 4.368-4.284 5.096-5.264l.812-.98-1.82-2.52c-1.512-2.184-3.248-4.032-4.116-4.816V27.5h6.972l.56.728-.084.168c-.644-.196-1.876-.504-2.324-.504l3.612 4.928.98-1.204c.952-1.232 1.848-2.744 2.436-3.724-.476 0-1.68.308-2.324.504l-.084-.168.56-.728h4.088v.196c-1.456.952-3.164 2.604-4.564 4.564l-.812.952 1.624 2.212c1.344 1.932 2.912 4.172 4.704 5.88v.196h-7.14l-.644-.728.112-.168c.728.168 2.156.504 2.688.504l-4.116-5.656-1.456 1.932c-.924 1.26-1.708 2.464-2.324 3.724.532 0 1.96-.336 2.688-.504l.112.168-.644.728h-4.592Zm17.93-20.86h4.424l-2.072 5.264h-.28l-2.072-5.264Zm.28 20.86v-.28c.084-1.484.14-2.996.14-4.48v-8.848c-.42 0-1.568.308-2.156.504l-.084-.168.504-.728h2.408c.84 0 2.324-.084 3.024-.196l.028.168a77.73 77.73 0 0 0-.14 4.788v8.848c.42 0 1.568-.336 2.156-.504l.084.168-.504.728h-5.46Zm9.352 0v-.28c.084-1.484.14-2.996.14-4.48v-8.848c-.42 0-1.568.308-2.156.504l-.084-.168.504-.728h6.44c4.228 0 6.804 1.344 6.804 3.556 0 1.764-1.344 2.968-3.584 3.36 2.8.252 4.48 1.512 4.48 3.388 0 2.296-2.716 3.696-7.196 3.696h-5.348Zm3.724-7.28h1.092c2.296 0 3.78-1.232 3.78-3.164 0-1.848-1.484-3.024-3.78-3.024h-1.092v6.188Zm0 6.832h1.232c2.548 0 4.228-1.26 4.228-3.108 0-1.932-1.68-3.22-4.256-3.22h-1.204v6.328Z" fill="#333"/></svg>

<svg width="323" height="60" viewBox="0 0 323 60" fill="none" xmlns="http://www.w3.org/2000/svg">
<path d="M45 30C45 39.691 37.3632 47.5 28 47.5C18.6368 47.5 11 39.691 11 30C11 20.309 18.6368 12.5 28 12.5C37.3632 12.5 45 20.309 45 30Z" stroke="#BC4CC6" stroke-width="2"/>
<line x1="28" y1="0.5" x2="28" y2="59.5" stroke="#BC4CC6" stroke-width="2"/>
<line x1="59" y1="30.5" x2="-8.74228e-08" y2="30.5" stroke="#BC4CC6" stroke-width="2"/>
<line x1="49.1337" y1="51.567" x2="7.41441" y2="9.84767" stroke="#BC4CC6" stroke-width="2"/>
<line x1="7.35735" y1="50.1528" x2="49.0766" y2="8.43346" stroke="#BC4CC6" stroke-width="2"/>
<path d="M101.68 46.848L101.624 46.512C101.036 44.524 97.984 41.5 95.8 41.5H82.164V41.22C82.276 39.736 82.332 38.224 82.332 36.74V22.292C81.8 22.292 80.372 22.6 79.644 22.796L79.532 22.628L80.176 21.9H86.756V22.18C86.672 23.664 86.616 25.176 86.616 26.66V40.94H94.344V26.66C94.344 25.176 94.316 23.664 94.204 22.18V21.9H98.796V22.18C98.684 23.664 98.628 25.176 98.628 26.66V36.74C98.628 38.14 98.684 39.568 98.768 40.968H100.952L100.336 39.736H101.176L102.1 46.708L101.68 46.848ZM119.971 40.604L120.055 40.772L119.551 41.5H114.119V41.22C114.175 39.736 114.231 38.224 114.231 36.74V29.6L105.019 42.312H104.767C104.823 40.716 104.851 38.812 104.851 36.18V27.892C104.431 27.892 103.283 28.2 102.695 28.396L102.611 28.228L103.115 27.5H105.551C106.363 27.5 107.931 27.416 108.547 27.304L108.631 27.472C108.519 28.732 108.463 30.524 108.463 32.26V36.6L115.071 27.5H115.435C115.855 27.5 117.171 27.416 117.899 27.304L117.983 27.472C117.899 28.732 117.815 30.524 117.815 32.26V41.108C118.235 41.108 119.383 40.772 119.971 40.604ZM131.927 47.1V46.82C131.983 45.336 132.039 43.824 132.039 42.34V38.616C131.283 40.632 129.799 41.78 127.643 41.78C124.339 41.78 121.959 38.7 121.959 34.5C121.959 30.16 124.255 27.22 127.643 27.22C129.855 27.22 131.311 28.34 132.039 30.3V22.292C131.619 22.292 130.471 22.6 129.883 22.796L129.799 22.628L130.303 21.9H132.739C133.551 21.9 135.119 21.816 135.735 21.704L135.791 21.872C135.707 23.132 135.651 24.924 135.651 26.66V30.384C136.407 28.368 137.891 27.22 140.047 27.22C143.351 27.22 145.731 30.272 145.731 34.5C145.731 38.84 143.435 41.78 140.047 41.78C137.835 41.78 136.379 40.66 135.651 38.672V46.708C136.099 46.708 137.331 46.4 137.975 46.204L138.059 46.372L137.499 47.1H131.927ZM128.987 40.912C130.863 40.912 132.207 38.308 132.207 34.5C132.207 30.664 130.863 28.06 128.987 28.06C127.083 28.06 125.767 30.664 125.767 34.5C125.767 38.336 127.083 40.912 128.987 40.912ZM138.703 40.912C140.607 40.912 141.923 38.336 141.923 34.5C141.923 30.664 140.607 28.06 138.703 28.06C136.827 28.06 135.483 30.664 135.483 34.5C135.483 38.308 136.827 40.912 138.703 40.912ZM149.721 47.1V46.82C149.805 45.336 149.861 43.824 149.861 42.34V27.892C149.441 27.892 148.293 28.2 147.705 28.396L147.621 28.228L148.125 27.5H150.533C151.345 27.5 152.913 27.416 153.557 27.304L153.585 27.472C153.529 28.312 153.473 29.32 153.473 30.412C154.285 28.368 155.909 27.22 158.261 27.22C161.845 27.22 164.449 30.272 164.449 34.5C164.449 38.84 161.957 41.78 158.261 41.78C155.853 41.78 154.257 40.632 153.445 38.588V46.708C153.977 46.708 155.405 46.4 156.133 46.204L156.245 46.372L155.601 47.1H149.721ZM156.973 40.912C159.129 40.912 160.641 38.336 160.641 34.5C160.641 30.664 159.129 28.06 156.973 28.06C154.565 28.06 153.277 31.364 153.277 34.5C153.277 38.308 154.817 40.912 156.973 40.912ZM174.808 41.78C170.216 41.78 166.94 38.756 166.94 34.5C166.94 30.244 170.216 27.22 174.808 27.22C179.4 27.22 182.676 30.244 182.676 34.5C182.676 38.756 179.4 41.78 174.808 41.78ZM174.808 41.304C177.16 41.304 178.84 38.532 178.84 34.5C178.84 30.468 177.16 27.668 174.808 27.668C172.428 27.668 170.776 30.468 170.776 34.5C170.776 38.532 172.428 41.304 174.808 41.304ZM186.662 41.5V41.22C186.746 39.736 186.802 38.224 186.802 36.74V27.892C186.382 27.892 185.234 28.2 184.646 28.396L184.562 28.228L185.066 27.5H191.506C195.734 27.5 198.31 28.844 198.31 31.056C198.31 32.82 196.966 34.024 194.726 34.416C197.526 34.668 199.206 35.928 199.206 37.804C199.206 40.1 196.49 41.5 192.01 41.5H186.662ZM190.386 34.22H191.478C193.774 34.22 195.258 32.988 195.258 31.056C195.258 29.208 193.774 28.032 191.478 28.032H190.386V34.22ZM190.386 41.052H191.618C194.166 41.052 195.846 39.792 195.846 37.944C195.846 36.012 194.166 34.724 191.59 34.724H190.386V41.052ZM217.998 40.604L218.082 40.772L217.578 41.5H212.146V41.22C212.202 39.736 212.258 38.224 212.258 36.74V29.6L203.046 42.312H202.794C202.85 40.716 202.878 38.812 202.878 36.18V27.892C202.458 27.892 201.31 28.2 200.722 28.396L200.638 28.228L201.142 27.5H203.578C204.39 27.5 205.958 27.416 206.574 27.304L206.658 27.472C206.546 28.732 206.49 30.524 206.49 32.26V36.6L213.098 27.5H213.462C213.882 27.5 215.198 27.416 215.926 27.304L216.01 27.472C215.926 28.732 215.842 30.524 215.842 32.26V41.108C216.262 41.108 217.41 40.772 217.998 40.604ZM233.147 19.548V19.856C233.147 23.132 231.075 25.372 228.023 25.372C224.971 25.372 222.899 23.132 222.899 19.856V19.548H223.347V19.716C223.347 21.48 225.223 22.656 228.023 22.656C230.851 22.656 232.727 21.48 232.727 19.716V19.548H233.147ZM236.647 40.604L236.731 40.772L236.227 41.5H230.795V41.22C230.851 39.736 230.907 38.224 230.907 36.74V29.6L221.695 42.312H221.443C221.499 40.716 221.527 38.812 221.527 36.18V27.892C221.107 27.892 219.959 28.2 219.371 28.396L219.287 28.228L219.791 27.5H222.227C223.039 27.5 224.607 27.416 225.223 27.304L225.307 27.472C225.195 28.732 225.139 30.524 225.139 32.26V36.6L231.747 27.5H232.111C232.531 27.5 233.847 27.416 234.575 27.304L234.659 27.472C234.575 28.732 234.491 30.524 234.491 32.26V41.108C234.911 41.108 236.059 40.772 236.647 40.604ZM244.095 41.5V41.192C245.355 39.456 247.847 34.388 248.855 31.812L251.515 25.176C250.507 23.664 249.387 22.432 248.463 22.208L248.519 21.9H253.699H255.015C255.659 23.748 256.275 25.316 256.835 26.632L261.231 37.104C261.819 38.504 262.267 39.456 263.135 41.22V41.5H256.359L255.715 40.772L255.827 40.604C256.555 40.772 257.983 41.108 258.515 41.108L256.023 35.06H248.155C247.343 37.272 246.671 39.82 246.503 41.108C247.035 41.108 248.463 40.772 249.191 40.604L249.303 40.772L248.659 41.5H244.095ZM248.351 34.528H255.799L253.447 28.844C253.027 27.836 252.467 26.716 251.823 25.652L248.351 34.528ZM265.822 47.1V46.82C265.906 45.336 265.962 43.824 265.962 42.34V27.892C265.542 27.892 264.394 28.2 263.806 28.396L263.722 28.228L264.226 27.5H266.634C267.446 27.5 269.014 27.416 269.658 27.304L269.686 27.472C269.63 28.312 269.574 29.32 269.574 30.412C270.386 28.368 272.01 27.22 274.362 27.22C277.946 27.22 280.55 30.272 280.55 34.5C280.55 38.84 278.058 41.78 274.362 41.78C271.954 41.78 270.358 40.632 269.546 38.588V46.708C270.078 46.708 271.506 46.4 272.234 46.204L272.346 46.372L271.702 47.1H265.822ZM273.074 40.912C275.23 40.912 276.742 38.336 276.742 34.5C276.742 30.664 275.23 28.06 273.074 28.06C270.666 28.06 269.378 31.364 269.378 34.5C269.378 38.308 270.918 40.912 273.074 40.912ZM281.682 41.5V41.304C283.642 39.932 286.05 37.02 286.778 36.04L287.59 35.06L285.77 32.54C284.258 30.356 282.522 28.508 281.654 27.724V27.5H288.626L289.186 28.228L289.102 28.396C288.458 28.2 287.226 27.892 286.778 27.892L290.39 32.82L291.37 31.616C292.322 30.384 293.218 28.872 293.806 27.892C293.33 27.892 292.126 28.2 291.482 28.396L291.398 28.228L291.958 27.5H296.046V27.696C294.59 28.648 292.882 30.3 291.482 32.26L290.67 33.212L292.294 35.424C293.638 37.356 295.206 39.596 296.998 41.304V41.5H289.858L289.214 40.772L289.326 40.604C290.054 40.772 291.482 41.108 292.014 41.108L287.898 35.452L286.442 37.384C285.518 38.644 284.734 39.848 284.118 41.108C284.65 41.108 286.078 40.772 286.806 40.604L286.918 40.772L286.274 41.5H281.682ZM299.612 20.64H304.036L301.964 25.904H301.684L299.612 20.64ZM299.892 41.5V41.22C299.976 39.736 300.032 38.224 300.032 36.74V27.892C299.612 27.892 298.464 28.2 297.876 28.396L297.792 28.228L298.296 27.5H300.704C301.544 27.5 303.028 27.416 303.728 27.304L303.756 27.472C303.672 28.732 303.616 30.524 303.616 32.26V41.108C304.036 41.108 305.184 40.772 305.772 40.604L305.856 40.772L305.352 41.5H299.892ZM309.244 41.5V41.22C309.328 39.736 309.384 38.224 309.384 36.74V27.892C308.964 27.892 307.816 28.2 307.228 28.396L307.144 28.228L307.648 27.5H314.088C318.316 27.5 320.892 28.844 320.892 31.056C320.892 32.82 319.548 34.024 317.308 34.416C320.108 34.668 321.788 35.928 321.788 37.804C321.788 40.1 319.072 41.5 314.592 41.5H309.244ZM312.968 34.22H314.06C316.356 34.22 317.84 32.988 317.84 31.056C317.84 29.208 316.356 28.032 314.06 28.032H312.968V34.22ZM312.968 41.052H314.2C316.748 41.052 318.428 39.792 318.428 37.944C318.428 36.012 316.748 34.724 314.172 34.724H312.968V41.052Z" fill="#333333"/>
</svg>
